!!!COM: Anonymous
!!!OTL: Je ne suis plus si esbatant
!!!AGN: Song; Chanson; Rondeau
!!!SCT: Ano3154
!!!SCA: Ano3154
!!!SMS: Dijon Chansonnier
!!!folio: 160v-161r
!!!voices: 3
**kern	**kern	**kern
*staff3	*staff2	*staff1
*Ivox	*Ivox	*Ivox
*I"Contra	*I"Tenor	*I"Discantus
*I'C	*I'T	*I'D
*clefGv2	*clefGv2	*clefG2
*k[]	*k[]	*k[]
*M2/1	*M2/1	*M2/1
*met(C|)	*met(C|)	*met(C|)
=1-	=1-	=1-
0G	0r	0g
=2	=2	=2
1B	0r	1d
1B	.	1d
=3	=3	=3
1d	0G	1g
1d	.	1g
=4	=4	=4
0d	1D	1a
.	1D	1a
=5	=5	=5
1r	1G	1g
1d	1G	1r
=6	=6	=6
1c	1A	1.cc
1A	1A	.
.	.	2b\
=7	=7	=7
0B	1G	1.dd
.	[1d	.
.	.	2cc\
=8	=8	=8
0G	2d\]	2b\
.	2c\	2a/
.	1d	[1b
=9	=9	=9
1E	1G	2b\]
.	.	2a/
1G	1B	[1g
=10	=10	=10
0D	0A	1g]
.	.	1f#i
=11	=11	=11
1d	[0G	0g
1d	.	.
=12	=12	=12
1B	0G]	1r
[1G	.	1dd
=13	=13	=13
2G/]	1r	1dd
4F/	.	.
4E/	.	.
1G	1d	1b
=14	=14	=14
1D	1d	1a
1r	1B	1dd
=15	=15	=15
1E	1e	1b
1G	1e	1g
=16	=16	=16
0D	1d	1f
.	1B	1d
=17	=17	=17
0A	0c	1.e
.	.	2f/
=18	=18	=18
1.B	0G	1g
.	.	[1d
2c\	.	.
=19	=19	=19
1d	1D	1d]
[1B	[1G	[1e
=20	=20	=20
2B\]	1G]	1e]
2A/	.	.
[1A	1F	[1d
=21	=21	=21
1A]	0E	2d/]
.	.	2B/
1G	.	1c#i
=22	=22	=22
!	!	!LO:TX:Z=24:t=MS&colon; d' long
1AN	0DN	[0dN
1A	.	.
=23	=23	=23
1D	1r	1d]
1E	1G	1r
=24	=24	=24
0D	1A	0r
.	1A	.
=25	=25	=25
1.d	0G	1r
.	.	1g
2e\	.	.
=26	=26	=26
1f	1r	1a
1e	1c	1a
=27	=27	=27
1.d	0B	0g
2B\	.	.
=28	=28	=28
0c	0A	1r
.	.	1cc
=29	=29	=29
0d	0G	0b
=30	=30	=30
1d	1r	0a
1A	1F	.
=31	=31	=31
1d	0G	0g
[1d	.	.
=32	=32	=32
1d]	0E	1r
1c#i	.	1g
=33	=33	=33
0d	0D	0f
=34	=34	=34
0c	1r	0e
.	1A	.
=35	=35	=35
1r	1.B	0d
1B	.	.
.	2c\	.
=36	=36	=36
1G	0d	1r
1B	.	1d
=37	=37	=37
0A	1.c	1e
.	.	1f
.	2B\	.
=38	=38	=38
0B	0G	1g
.	.	1dd
=39	=39	=39
1G	1d	1b
1A	1c	1a
=40	=40	=40
1E	1B	1g
[1F	[1A	[1cc
=41	=41	=41
1F]	2A/]	2cc\]
.	2B\	2b\
1F	1c	2a/
.	.	2g/
=42	=42	=42
0D	1.d	1.f
.	2e\	2g/
=43	=43	=43
1D	1d	1a
1G	[1G	[1b
=44	=44	=44
1E	1G]	2b\]
.	.	2a/
1G	1B	[1g
=45	=45	=45
0D	0A	1g]
.	.	1f#i
=46	=46	=46
0dl	0Gl	0gl
==	==	==
*-	*-	*-
!!!RDF**kern: l=long note in original notation
!!!RDF**kern: i=editorial accidental
!!!ENC: Chris Gage 1-25-2017
!!!END: 2018/12/10/
!!!EED: Jesse Rodin
!!!EEV: 2018/12/13/
!!!ONB: Translated from MusicXML and edited on 2018/12/13/ by Craig Sapp
!!muse2ps: C^@{COM}\n@{SMS}, @{folio}^v95,95,150Q16c80
